!!!COM: Jules Massenet
!!!CNT: Francais
!!!TXO: Francais
!!!OTL: Pour qu'a\ l'espe/rance
!!!LYR: Armand Silvestre
!!!OPR: Poe2me du Souvenir
!!!ONM: No. 5
!!!ENC: Jacob Pegg
!!!YOR: Romantic French Song 1830-1870 - David Tunley, ed.,
!!!YOR: New York: Garland Publishing, Inc., 1995, Vol. 6
!!!ODT: 1868/
!!NB: Vocal melody and text only encoded.
!!NB: First instance of melodic material only encoded.
**kern	**silbe
*clef G2	*
*k[b-e-a-d-]	*
*M2/2	*
!!created: 12/15/03 0:41
!!proofed and posted: 12/15/03 13:42
!!edit time: 49 min.
=1	=1
1r	.
=2	=2
{8f	{Pour
8f	qu'a\
8f	l'Es-
8f	-pe/-
4dd-	-rance
8dd-	il
8cc	ne
=3	=3
2bn	ce/-
[8cc	-de,
16cc]}	|}
16r	.
{8cc	{J'ai
8a-	mu-
=4	=4
4f	-re/
4f	mon
4e-	coeur
8e-	re/-
8e-	-vol-
=5	=5
2dn}	-te/}
{4g	{Dans
4g	la
=6	=6
2g	mor-
8g	-ne
8g	fi-
8g	-de/-
8g	-li-
=7	=7
8g}	-te/}
{8an	{Du
8bn	sou-
8cc	-ve-
[2een	-nir
=8	=8
8een]	|
8cc	qui
8g	le
8an	pos-
(2bn	-se\-
=9	=9
2cc)}	-de.}
2r	.
=10	=10
{4f	{Vers
8f	l'ho-
8f	-ri-
8ff	-zon
8ee-	ou\
8dd-	l'Au-
8cc	-be a
=11	=11
4..bn}	lui,}
16r	.
{4cc	{Pour
8cc	qu'un
8cc	vain
=12	=12
8dd-	re^-
8dd-	-ve
8dd-	ne
8dd-	l'em-
(4ff-	-por-
8ee-	|
8dd-	|
=13	=13
2cc)}	-te,}
4r	.
{4a-	{Comme
=14	=14
8g	une
8g	in-
8g	-e-
8g	-xo-
4b-	-ra-
4b-	-ble
=15	=15
4an	por-
[8an	-te,
16an]}	|}
16r	.
{4ddn	{J'ai
4ffn	fer-
=16	=16
4cc	-me/
8c	le
8dn	Pas-
4..en	-se/
16f	sur
=17	=17
*M4/4	*
2f}	lui.}
4r	.
8r	.
{8a-	{J'ai
=18	=18
4a-}	dit:}
8r	.
{8cc	{Ma
8cc	part
8cc	me
8ddn	fut
8cc	comp-
=19	=19
2bn	-te/-
4cc}	-e}
{4ee-	{D'ai-
=20	=20
8ddn	-mer
8cc	sans
8a-	en
8f	pou-
4.a-	-voir
8g	mou-
=21	=21
4en}	-rir;}
4r	.
{4.cc	{L'ombre
8cc	est
=22	=22
(4ddn	douce
8cc)	|
8an	a\
4b-	qui
8dd-	veut
8b-	souf-
=23	=23
2a-}	-frir.}
8r	.
{8a-	{Que
8b-	me
8cc	fe-
=24	=24
2dd-	-rait
(8f	l'Aube
8a-)	|
8dd-	en-
8ff	-chan-
=25	=25
(4cc	-te/-
4b-)	|
[2cc	-e?
=26	=26
2cc]}	|}
8r	.
{8f	{que
8g	me
8a-	fe-
=27	=27
2b-	-rait
4b-	l'Aube
8dd-	en-
8b-	-chan-
=28	=28
(2an	-te/-
2g	|
=29	=29
2f)}	-e?}
8r	.
{8ee-	{Puis-
8dd-	-que
8cc	ne
=30	=30
8b-	peut
8an	m'e^-
8dd-	-tre
8cc	ren-
2cc}	-du}
=31	=31
8r	.
{8ee-	{L'heur
8dd-	de
8cc	re-
8b-	-voir
8an	le
8dd-	doux
8cc	vi-
=32	=32
*M2/4	*
(4cc	-sa-
4bn)}	-ge,}
=33	=33
*M4/4	*
8r	.
{8ff	{Qui
8ee-	fut
8ddn	ma
8cc	Joye
8bn	et
8ee-	mon
8ddn	Cou-
=34	=34
(4ddn	-ra-
2dd-)	|
4cc}	-ge,}
=35	=35
2r	.
{4cc	{Et,
8cc	que
8a-	per-
=36	=36
1f	-dant,
=37	=37
2en	j'ai
4..en	tout
16dd-	per-
=38	=38
[1cc	-du!
=39	=39
2cc]}	|}
2r	.
*-	*-
